svgs/sharp-light/square-9.svg

<svg xmlns="http://www.w3.org/2000/svg" viewBox="0 0 448 512"><!--! Font Awesome Pro 6.6.0 by @fontawesome - https://fontawesome.com License - https://fontawesome.com/license (Commercial License) Copyright 2024 Fonticons, Inc. --><path d="M416 448l0-384L32 64l0 384 384 0zm32 32l-32 0L32 480 0 480l0-32L0 64 0 32l32 0 384 0 32 0 0 32 0 384 0 32zM287.3 303.7l-79 80.3-44.9 0 1.2-1.2L226.4 320c-.8 0-1.6 0-2.4 0c-53 0-96-43-96-96s43-96 96-96s96 43 96 96c0 29.8-11.7 58.5-32.7 79.7zM288 224a64 64 0 1 0 -128 0 64 64 0 1 0 128 0z"/></svg>

<svg xmlns="http://www.w3.org/2000/svg" viewBox="0 0 448 512"><!--! Font Awesome Pro 6.4.0 by @fontawesome - https://fontawesome.com License - https://fontawesome.com/license (Commercial License) Copyright 2023 Fonticons, Inc. --><path d="M416 448V64H32V448H416zm32 32H416 32 0V448 64 32H32 416h32V64 448v32zM287.3 303.7l-79 80.3H163.4l1.2-1.2L226.4 320c-.8 0-1.6 0-2.4 0c-53 0-96-43-96-96s43-96 96-96s96 43 96 96c0 29.8-11.7 58.5-32.7 79.7zM288 224a64 64 0 1 0 -128 0 64 64 0 1 0 128 0z"/></svg>
